packages/tokens/icons/receipt2/size16Px.svg

<svg viewBox="0 0 16 16" fill="none" xmlns="http://www.w3.org/2000/svg" width="1em" height="1em"><path d="M10.6374 13.5192C10.5308 13.4888 10.4172 13.4946 10.3143 13.5358L8 14.4615L5.6857 13.5358C5.58282 13.4946 5.46918 13.4888 5.36264 13.5192L2.5 14.3371L2.5 2C2.5 1.72386 2.72386 1.5 3 1.5L13 1.5C13.2761 1.5 13.5 1.72386 13.5 2L13.5 14.3371L10.6374 13.5192Z" stroke="currentColor" stroke-linecap="round" stroke-linejoin="round"/><path d="M10.5 6.24V6.1C10.5 5.3268 9.84708 4.7 9.04167 4.7L6.95833 4.7C6.15292 4.7 5.5 5.3268 5.5 6.1C5.5 6.8732 6.15292 7.5 6.95833 7.5L9.04167 7.5C9.84708 7.5 10.5 8.1268 10.5 8.9C10.5 9.6732 9.84708 10.3 9.04167 10.3H6.95833C6.15292 10.3 5.5 9.6732 5.5 8.9V8.62M8 3.5L8 11.5" stroke="currentColor" stroke-linecap="round"/></svg>

<svg xmlns="http://www.w3.org/2000/svg" fill="none" viewBox="0 0 16 16" width="1em" height="1em"><path stroke="currentColor" stroke-linecap="round" stroke-linejoin="round" d="M10.637 13.52a.5.5 0 0 0-.323.016L8 14.46l-2.314-.925a.5.5 0 0 0-.323-.017l-2.863.818V2a.5.5 0 0 1 .5-.5h10a.5.5 0 0 1 .5.5v12.337l-2.863-.818Z"/><path stroke="currentColor" stroke-linecap="round" d="M10.5 6.24V6.1c0-.773-.653-1.4-1.458-1.4H6.958c-.805 0-1.458.627-1.458 1.4 0 .773.653 1.4 1.458 1.4h2.084c.805 0 1.458.627 1.458 1.4 0 .773-.653 1.4-1.458 1.4H6.958c-.805 0-1.458-.627-1.458-1.4v-.28M8 3.5v8"/></svg>
